SVG_Azure_Grouped/Deployment/OpenShift cluster.svg

<?xml version="1.0" encoding="UTF-8" standalone="no"?>
<!-- Generated by Microsoft Visio, SVG Export OpenShift cluster.svg Page-1 -->

<svg
   xmlns:dc="http://purl.org/dc/elements/1.1/"
   xmlns:cc="http://creativecommons.org/ns#"
   xmlns:rdf="http://www.w3.org/1999/02/22-rdf-syntax-ns#"
   xmlns:svg="http://www.w3.org/2000/svg"
   xmlns="http://www.w3.org/2000/svg"
   xmlns:sodipodi="http://sodipodi.sourceforge.net/DTD/sodipodi-0.dtd"
   xmlns:inkscape="http://www.inkscape.org/namespaces/inkscape"
   width="0.74803519in"
   height="0.69119114in"
   viewBox="0 0 53.858502 49.765885"
   xml:space="preserve"
   class="st6"
   version="1.1"
   id="svg49"
   sodipodi:docname="OpenShift cluster.svg"
   style="font-size:12px;overflow:visible;color-interpolation-filters:sRGB;fill:none;fill-rule:evenodd;stroke-linecap:square;stroke-miterlimit:3"
   inkscape:version="0.92.5 (2060ec1f9f, 2020-04-08)"><metadata
   id="metadata55"><rdf:RDF><cc:Work
       rdf:about=""><dc:format>image/svg+xml</dc:format><dc:type
         rdf:resource="http://purl.org/dc/dcmitype/StillImage" /></cc:Work></rdf:RDF></metadata><defs
   id="defs53" /><sodipodi:namedview
   pagecolor="#ffffff"
   bordercolor="#666666"
   borderopacity="1"
   objecttolerance="10"
   gridtolerance="10"
   guidetolerance="10"
   inkscape:pageopacity="0"
   inkscape:pageshadow="2"
   inkscape:window-width="640"
   inkscape:window-height="480"
   id="namedview51"
   showgrid="false"
   inkscape:zoom="1.8365233"
   inkscape:cx="35.905404"
   inkscape:cy="14.279191"
   inkscape:window-x="0"
   inkscape:window-y="0"
   inkscape:window-maximized="0"
   inkscape:current-layer="svg49" />
	<style
   type="text/css"
   id="style2">
	<![CDATA[
		.st1 {fill:#c32034;stroke:none;stroke-linecap:butt;stroke-width:3.06}
		.st2 {fill:#db212f;stroke:none;stroke-linecap:butt;stroke-width:3.06}
		.st3 {fill:#ea2227;stroke:none;stroke-linecap:butt;stroke-width:3.06}
		.st4 {fill:#ad213a;stroke:none;stroke-linecap:butt;stroke-width:3.06}
		.st5 {fill:#ba2034;stroke:none;stroke-linecap:butt;stroke-width:3.06}
		.st6 {fill:none;fill-rule:evenodd;font-size:12px;overflow:visible;stroke-linecap:square;stroke-miterlimit:3}
	]]>
	</style>

	<g
   id="g47"
   transform="translate(-5.3859292,-9.1325357)">
		<title
   id="title4">Page-1</title>
		<g
   id="group17150-1"
   transform="translate(5.38583,-34.0157)">
			<title
   id="title6">OpenShift cluster.17150</title>
			<g
   id="group17151-2">
				<title
   id="title8">Sheet.17151</title>
				<g
   id="shape17152-3"
   transform="translate(6.97867,-23.5579)">
					<title
   id="title10">Sheet.17152</title>
					<path
   d="M 8.65,89.05 0,92.23 c 0.11,1.42 0.33,2.8 0.71,4.15 l 8.2,-2.99 C 8.65,91.89 8.54,90.47 8.65,89.05 Z M 46.88,79.4 c -0.59,-1.24 -1.3,-2.47 -2.08,-3.59 l -8.65,3.17 c 1,1.05 1.86,2.21 2.56,3.44 -0.03,-0.03 8.17,-3.02 8.17,-3.02 z"
   class="st1"
   id="path12"
   inkscape:connector-curvature="0"
   style="fill:#c32034;stroke:none;stroke-width:3.05999994;stroke-linecap:butt" />
				</g>
				<g
   id="shape17153-5"
   transform="translate(3.09957,-26.4138)">
					<title
   id="title15">Sheet.17153</title>
					<path
   d="m 31.74,79.78 c 1.78,0.82 3.34,2.02 4.68,3.36 l 8.64,-3.17 C 42.69,76.6 39.38,73.76 35.41,71.89 23.05,66.1 8.32,71.48 2.56,83.93 0.71,87.97 0,92.23 0.33,96.38 L 8.98,93.2 c 0.15,-1.91 0.6,-3.78 1.45,-5.61 3.71,-8.07 13.25,-11.55 21.31,-7.81 z"
   class="st2"
   id="path17"
   inkscape:connector-curvature="0"
   style="fill:#db212f;stroke:none;stroke-width:3.05999994;stroke-linecap:butt" />
				</g>
				<g
   id="shape17154-7"
   transform="translate(0,-12.3733)">
					<title
   id="title20">Sheet.17154</title>
					<path
   d="M 8.2,84.94 0,87.93 c 0.74,2.99 2.08,5.87 3.86,8.45 L 12.47,93.2 C 10.28,90.92 8.8,88.04 8.2,84.94 Z"
   class="st3"
   id="path22"
   inkscape:connector-curvature="0"
   style="fill:#ea2227;stroke:none;stroke-width:3.05999994;stroke-linecap:butt" />
				</g>
				<g
   id="shape17155-9"
   transform="translate(7.98093)">
					<title
   id="title25">Sheet.17155</title>
					<path
   d="m 36.08,69.28 c -0.15,1.9 -0.63,3.77 -1.45,5.6 C 30.88,82.96 21.31,86.51 13.29,82.7 11.51,81.87 9.95,80.68 8.61,79.33 L 0,82.51 c 2.38,3.36 5.64,6.2 9.65,8.07 12.36,5.8 27.1,0.42 32.85,-12.03 1.86,-4.04 2.56,-8.3 2.23,-12.45 z"
   class="st2"
   id="path27"
   inkscape:connector-curvature="0"
   style="fill:#db212f;stroke:none;stroke-width:3.05999994;stroke-linecap:butt" />
				</g>
				<g
   id="shape17156-11"
   transform="translate(37.9855,-25.6326)">
					<title
   id="title30">Sheet.17156</title>
					<path
   d="M 8.2,84.27 0,87.26 c 1.52,2.76 2.26,5.94 2,9.12 L 10.62,93.2 C 10.39,90.14 9.54,87.11 8.2,84.27 Z"
   class="st3"
   id="path32"
   inkscape:connector-curvature="0"
   style="fill:#ea2227;stroke:none;stroke-width:3.05999994;stroke-linecap:butt" />
				</g>
				<g
   id="shape17157-13"
   transform="translate(7.00094,-26.0512)">
					<title
   id="title35">Sheet.17157</title>
					<path
   d="m 0,94.7 8.61,-3.14 -0.04,1.72 -8.31,3.1 z m 36.12,-13.27 8.76,-3 0.93,1.35 -8.5,2.99 c -0.04,0.04 -1.19,-1.34 -1.19,-1.34 z"
   class="st4"
   id="path37"
   inkscape:connector-curvature="0"
   style="fill:#ad213a;stroke:none;stroke-width:3.05999994;stroke-linecap:butt" />
				</g>
				<g
   id="shape17158-15"
   transform="translate(7.93638,-11.192)">
					<title
   id="title40">Sheet.17158</title>
					<path
   d="m 0,93.69 8.61,-3.11 2.6,2.43 -9.06,3.37 C 2.19,96.38 0,93.69 0,93.69 Z m 44.89,-16.33 -8.76,3.14 -0.63,3.47 9.36,-3.28 c -0.04,-0.04 0.03,-3.33 0.03,-3.33 z"
   class="st5"
   id="path42"
   inkscape:connector-curvature="0"
   style="fill:#ba2034;stroke:none;stroke-width:3.05999994;stroke-linecap:butt" />
				</g>
			</g>
		</g>
	</g>
</svg>

<?xml version="1.0" encoding="UTF-8" standalone="no"?>
<!DOCTYPE svg PUBLIC "-//W3C//DTD SVG 1.1//EN" "http://www.w3.org/Graphics/SVG/1.1/DTD/svg11.dtd">
<!-- Generated by Microsoft Visio, SVG Export OpenShift cluster.svg Page-1 -->
<svg xmlns="http://www.w3.org/2000/svg" xmlns:xlink="http://www.w3.org/1999/xlink" xmlns:ev="http://www.w3.org/2001/xml-events"
		width="0.897638in" height="1.33858in" viewBox="0 0 64.6299 96.378" xml:space="preserve" color-interpolation-filters="sRGB"
		class="st6">
	<style type="text/css">
	<![CDATA[
		.st1 {fill:#c32034;stroke:none;stroke-linecap:butt;stroke-width:3.06}
		.st2 {fill:#db212f;stroke:none;stroke-linecap:butt;stroke-width:3.06}
		.st3 {fill:#ea2227;stroke:none;stroke-linecap:butt;stroke-width:3.06}
		.st4 {fill:#ad213a;stroke:none;stroke-linecap:butt;stroke-width:3.06}
		.st5 {fill:#ba2034;stroke:none;stroke-linecap:butt;stroke-width:3.06}
		.st6 {fill:none;fill-rule:evenodd;font-size:12px;overflow:visible;stroke-linecap:square;stroke-miterlimit:3}
	]]>
	</style>

	<g>
		<title>Page-1</title>
		<g id="group16757-1" transform="translate(5.38583,-34.0157)">
			<title>OpenShift cluster.16757</title>
			<g id="group16758-2">
				<title>Sheet.16758</title>
				<g id="shape16759-3" transform="translate(6.97867,-23.5579)">
					<title>Sheet.16759</title>
					<path d="M8.65 89.05 L0 92.23 C0.11 93.65 0.33 95.03 0.71 96.38 L8.91 93.39 C8.65 91.89 8.54 90.47 8.65 89.05
								 ZM46.88 79.4 C46.29 78.16 45.58 76.93 44.8 75.81 L36.15 78.98 C37.15 80.03 38.01 81.19 38.71 82.42
								 C38.68 82.39 46.88 79.4 46.88 79.4 Z" class="st1"/>
				</g>
				<g id="shape16760-5" transform="translate(3.09957,-26.4138)">
					<title>Sheet.16760</title>
					<path d="M31.74 79.78 C33.52 80.6 35.08 81.8 36.42 83.14 L45.06 79.97 C42.69 76.6 39.38 73.76 35.41 71.89 C23.05
								 66.1 8.32 71.48 2.56 83.93 C0.71 87.97 0 92.23 0.33 96.38 L8.98 93.2 C9.13 91.29 9.58 89.42 10.43
								 87.59 C14.14 79.52 23.68 76.04 31.74 79.78 Z" class="st2"/>
				</g>
				<g id="shape16761-7" transform="translate(0,-12.3733)">
					<title>Sheet.16761</title>
					<path d="M8.2 84.94 L0 87.93 C0.74 90.92 2.08 93.8 3.86 96.38 L12.47 93.2 C10.28 90.92 8.8 88.04 8.2 84.94 Z"
							class="st3"/>
				</g>
				<g id="shape16762-9" transform="translate(7.98093,0)">
					<title>Sheet.16762</title>
					<path d="M36.08 69.28 C35.93 71.18 35.45 73.05 34.63 74.88 C30.88 82.96 21.31 86.51 13.29 82.7 C11.51 81.87 9.95
								 80.68 8.61 79.33 L0 82.51 C2.38 85.87 5.64 88.71 9.65 90.58 C22.01 96.38 36.75 91 42.5 78.55 C44.36
								 74.51 45.06 70.25 44.73 66.1 L36.08 69.28 Z" class="st2"/>
				</g>
				<g id="shape16763-11" transform="translate(37.9855,-25.6326)">
					<title>Sheet.16763</title>
					<path d="M8.2 84.27 L0 87.26 C1.52 90.02 2.26 93.2 2 96.38 L10.62 93.2 C10.39 90.14 9.54 87.11 8.2 84.27 Z"
							class="st3"/>
				</g>
				<g id="shape16764-13" transform="translate(7.00094,-26.0512)">
					<title>Sheet.16764</title>
					<path d="M0 94.7 L8.61 91.56 L8.57 93.28 L0.26 96.38 L0 94.7 ZM36.12 81.43 L44.88 78.43 L45.81 79.78 L37.31 82.77
								 C37.27 82.81 36.12 81.43 36.12 81.43 Z" class="st4"/>
				</g>
				<g id="shape16765-15" transform="translate(7.93638,-11.192)">
					<title>Sheet.16765</title>
					<path d="M0 93.69 L8.61 90.58 L11.21 93.01 L2.15 96.38 C2.19 96.38 0 93.69 0 93.69 ZM44.89 77.36 L36.13 80.5
								 L35.5 83.97 L44.86 80.69 C44.82 80.65 44.89 77.36 44.89 77.36 Z" class="st5"/>
				</g>
			</g>
		</g>
	</g>
</svg>
